X:71
T: WAS TRAEGT DIE GANS AUF IHREM SCHNABEL
N: K1221
O: Europa, Mitteleuropa, Deutschland, Schlesien
R: Kinder - Lied, Tier - Maerchen
M: 3/4
L: 1/16
K: G
D2D3D | G4G4F3G | A4D4E3D | D8
D4 | c4c2c2A3c | B4B4
G3B | A4A4G2A2 | B4B4A3A | G4z2

